X: 1
T:no name
R:reel
Z:id:hn-reel-488
M:C|
K:A
~c3B ABcA|BAcA BAFA|EA~A2 fcec|fcec BcAB|
~c3B ABcA|BAcA BAFA|EA~A2 fcec|BAGB A3B:|
|:fc~c2 fagf|eg~g2 agfe|cf~f2 cfaf|gfeg fefg|
afec ABcA|BAcA BAFA|EA~A2 fcec|BAGB A3B:|
